X:1
T:F Major Samuel Babcock, 1795
T:John Gambold, 1711-1771 10 11. 10 11.
T:Needham
T:Transcribed from The Middlesex Harmony, 1795.
%%score [ 1 2 3 ]
L:1/8
Q:1/4=150
M:6/4
K:F
V:1 treble nm="Tr." snm="Tr."
V:2 treble-8 nm="T." snm="T."
V:3 bass nm="B." snm="B."
V:1
 A6 c2 c2 c2 | c4 c2 A2 G2 F2 | G4 G2 c2 A2 G2 | A2 c2 c2 f2 c2 z2 | z4 z4 z2 c2 | %5
w: 1.~~O tell me no|more Of this world's vain|store; The time for such|tr- fles, such tri- fles,|The|
w: 2.~~The souls that be-|lieve In pa- ra- dise|live; And me in that|num- ber, that num- ber,|And|
 A2 A2 A2 A2 A2 F2 | F2 F2 B2 A6- | A6 z4 A2 |: c2 c2 c2 c4 c2 | A2 G2 G2 A6 | z4 z4 z2 c2 | %11
w: time for such tri- fles with|me is now o'er;~|_ A|coun- try I've found Where|true joys a- bound;|To|
w: me in that num- ber will|Je- sus re- ceive.~|_ My|soul, don't de- lay, He|calls thee a- way;|Rise,|
 f2 c2 B2 A2 c2 z2 | z4 z4 z2 e2 | f2 c2 B2 !fermata!A4 c2 | A2 A2 A2 A2 A2 d2 |1 %15
w: dwell I'm de- ter- mined|on|that hap- py ground; To|dwell I'm de- ter- mined on|
w: fol- low thy Sa- vior,|and|bless the glad day; Rise,|fol- low thy Sa- vior, and|
 d2 d2 c2 [Ac]4 A2 :|2 d2 d2 c2 [Ac]6- || [Ac]6- [Ac]6 |] %18
w: that hap- py ground. A|that hap- py ground.~|_ _|
w: bless the glad day. My|bless the glad day.~|_ _|
V:2
 F6 A2 A2 A2 | A4 A2 c2 c2 c2 | c4 c2 A2 c2 c2 | f2 c2 z4 z4 | z4 z4 z2 A2 | c2 c2 c2 c2 f2 B2 | %6
w: 1.~~O tell me no|more Of this world's vain|store; The time for such|tri- fles,|The|time for such tri- fles with|
w: 2.~~The souls that be-|lieve In pa- ra- dise|live; And me in that|num- ber,|And|me in that num- ber will|
 A2 B2 G2 F6- | F6 z4 F2 |: G2 G2 G2 G4 AB | c2 c2 c2 c4 c2 | f2 c2 B2 A2 c2 z2 | z12 | %12
w: me is now o'er;~|_ A|coun- try I've found Where *|true joys a- bound; To|dwell I'm de- ter- mined||
w: Je- sus re- ceive.~|_ My|soul, don't de- lay, He *|calls thee a- way; Rise,|fol- low thy Sa- vior,||
 z4 z4 z2 A2 | c2 f2 d2 !fermata!c4 AB | c2 c2 c2 c2 f2 B2 |1 A2 B2 G2 F4 F2 :|2 A2 B2 G2 F6- || %17
w: on|that hap- py ground; To *|dwell I'm de- ter- mined on|that hap- py ground. A|that hap- py ground.~|
w: and|bless the glad day; Rise, *|fol- low thy Sa- vior, and|bless the glad day. My|bless the glad day.~|
 F6- F6 |] %18
w: _ _|
w: _ _|
V:3
 F,6 F,2 F,2 F,2 | F,4 F,2 C,2 C,2 C,2 | C,6- C,6 | z4 z4 z2 G,2 | E,2 C,2 z4 z2 F,2 | %5
w: |||such|tri- fles, *|
w: |||that|num- ber, *|
 F,2 F,2 F,2 F,2 F,2 F,2 | D,2 B,,2 C,2 F,6- | F,6 z4 F,2 |: C,2 C,2 C,2 C,4 C,2 | %9
w: ||||
w: ||||
 C,2 C,2 C,2 F,6 | z12 | z4 z4 z2 F,2 | D,2 G,2 G,2 E,2 C,2 C,2 | F,2 F,2 F,2 !fermata!F,4 F,2 | %14
w: ||To|dwell I'm de- ter- mined *||
w: ||Rise,|fol- low thy Sa- vior, *||
 F,2 F,2 F,2 F,2 F,2 F,2 |1 D,2 B,,2 C,2 F,4 F,2 :|2 D,2 B,,2 C,2 F,6- || F,6- F,6 |] %18
w: ||||
w: ||||

